X:1
T: Mr Ganiford's Maggot
N:
C:Pat Shaw
S:
A:
O:
R:
M:6/8
K:D
I:speed 150
%W: A1
% voice 1 (1 lines, 36 notes)
K:D
M:6/8
L:1/16
A2 |d4 d2 A4 =c2 B4 A2 G4 B2 A4 G2 F2 G2 A2 G4 F2 E4 C2 |D4 D2 E4 E2 F4 F2 G4 G2 A2 B2 c2 d2 A2 F2 E4 D2 D4 A2 |
%W: A2
% voice 1 (1 lines, 35 notes)
d4 d2 A4 =c2 B4 A2 G4 B2 A4 G2 F2 G2 A2 G4 F2 E4 C2 |D4 D2 E4 E2 F4 F2 G4 G2 A2 B2 c2 d2 A2 F2 E4 D2 D4 A2 |
%W: B1
% voice 1 (1 lines, 40 notes)
d4 d2 e4 e2 f4 f2 g4 g2 a2 b2 a2 g2 f2 e2 d4 f2 e4 A2 |d2 e2 d2 e2 f2 e2 f2 g2 f2 g2 a2 b2 a2 f2 d2 d2 e2 f2 e4 d2 d4 A2 |
%W: B2
% voice 1 (1 lines, 42 notes)
d2 c2 d2 e2 d2 e2 f2 e2 f2 g2 f2 g2 a2 b2 a2 g2 f2 e2 d4 f2 e4 A2 |d4 d2 =c2 d2 c2 B2 =c2 B2 A2 B2 A2 G2 A2 B2 A2 F2 D2 E4 D2 D4 ||
